src/print.svg

<svg viewBox="0 0 16 16" fill="none" xmlns="http://www.w3.org/2000/svg"><path fill-rule="evenodd" clip-rule="evenodd" d="M12 7H12.64C13.0007 7 13.3466 7.14329 13.6017 7.39833C13.8567 7.65338 14 7.99931 14 8.36V12.5H13V8.36C13 8.26452 12.9621 8.17295 12.8946 8.10544C12.827 8.03793 12.7355 8 12.64 8H3.36C3.26452 8 3.17295 8.03793 3.10544 8.10544C3.03793 8.17295 3 8.26452 3 8.36V12.5H2V8.36C2 7.99931 2.14329 7.65338 2.39833 7.39833C2.65338 7.14329 2.99931 7 3.36 7H4V2H9.71L12 4.29V7ZM5 3V7H11V4.71L9.29 3H5ZM4 9H5H12V14H4V9ZM5 13H11V10H5V13Z" fill="#111111"/></svg>

<svg viewBox="0 0 16 16" fill="none" xmlns="http://www.w3.org/2000/svg"><path fill-rule="evenodd" clip-rule="evenodd" d="M12 7h.64A1.36 1.36 0 0 1 14 8.36v4.14h-1V8.36a.36.36 0 0 0-.36-.36H3.36a.36.36 0 0 0-.36.36v4.14H2V8.36A1.36 1.36 0 0 1 3.36 7H4V2h5.71L12 4.29V7ZM5 3v4h6V4.71L9.29 3H5ZM4 9h8v5H4V9Zm1 4h6v-3H5v3Z" fill="#111111"/></svg>
